X: 2
T: The Mountain Road
R: reel
M: 4/4
L: 1/8
%Z: Modified by Megan Ward
K: Dmaj
|: ~F2 AF BFAF| ~F2 AF EFDE| ~F2 AF BFAF| GEED EFGE|
~F2 AF BFAF|~F2  AF EFDE| ~F2 AF BAFB|ABde fd ~d2||
dcdB ADFA| dcde fgfe| d2Bd ADFA| GEED EFGA|
d2 dB AF~F2| ABde fgfe| dfed BAFA| GEED EDB,D:||
